X:893
T:St. Lawrence Jig
C:Traditional French-Canadian
S:Colin Hume's website,  colinhume.com  - chords can also be printed below the stave.
Q:3/8=112
M:6/8
K:D
P:A
|: A | "D"ABA FAd | f2d A2d | "A"c2B G2B | "D"B2A F2A |\
ABA FAd | "D"f2d A2d | "A"c2e ABc | "D"d3 -d2 :|
P:B
|: f | "G"a2g B3 | "D"g2f A3 | "A"d2c cBc | "D"edB A2f |\
"G"a2g B3 | "D"g2f A3 | "A7"d2c cBc | "D"d3 -d2 :|

